assets/img/braze_icons/thumbs-up.svg

<svg fill="none" height="24" viewBox="0 0 24 24" width="24" xmlns="http://www.w3.org/2000/svg"><path d="m11.5342 1c-.7201 0-1.3725.42403-1.66495 1.08198l-3.36076 7.5617c-.08153.18345-.12411.27807-.15901.34467l-.0031.00588-.00663.00045c-.07504.00484-.17879.00532-.37954.00532h-.79875c-.52715-.00002-.98191-.00003-1.35649.0306-.39534.0323-.78856.1036-1.16694.2964-.56449.2876-1.02343.7465-1.31105 1.311-.19279.3784-.26411.7716-.29641 1.167-.030601.3745-.030586.8293-.03057 1.3564v4.6771c-.000016.5272-.000031.982.03057 1.3565.0323.3954.10362.7886.29641 1.167.28762.5645.74656 1.0234 1.31105 1.311.37838.1928.7716.2641 1.16694.2964.37457.0306.82933.0306 1.35647.0306.46312 0 .83856-.3754.83856-.8386v-8.1614c0-.5523.44772-1 1-1 .55229 0 1 .4477 1 1v7.4c0 .5601 0 .8401.10899 1.054.09588.1882.24886.3411.43702.437.21391.109.49394.109 1.05399.109h6.3196c.6988 0 1.2789 0 1.7562-.0363.4984-.038.9578-.1193 1.4013-.3203.6936-.3143 1.2831-.82 1.6992-1.4577.266-.4078.4163-.8495.5296-1.3363.1085-.4662.1967-1.0396.3029-1.7302l.5356-3.4815c.1408-.915.2562-1.6651.297-2.2773.0422-.6316.0146-1.221-.2009-1.7859-.3308-.86742-.9531-1.59275-1.7601-2.05166-.5256-.29886-1.1039-.41571-1.7346-.47012-.6113-.05275-1.3702-.05273-2.296-.05272h-.8498c-.2965 0-.4588-.00078-.5754-.0103l-.0131-.00115-.0012-.01318c-.0095-.11659-.0103-.27884-.0103-.57537v-2.93416c0-1.91413-1.5517-3.46584-3.4658-3.46584z" fill="#801ed7"/></svg>

<svg width="24" height="24" viewBox="0 0 24 24" fill="none" xmlns="http://www.w3.org/2000/svg">
<path d="M11.5342 1C10.8141 1 10.1617 1.42403 9.86925 2.08198L6.50849 9.64368C6.42696 9.82713 6.38438 9.92175 6.34948 9.98835L6.34638 9.99423L6.33975 9.99468C6.26471 9.99952 6.16096 10 5.96021 10L5.16146 10C4.63431 9.99998 4.17955 9.99997 3.80497 10.0306C3.40963 10.0629 3.01641 10.1342 2.63803 10.327C2.07354 10.6146 1.6146 11.0735 1.32698 11.638C1.13419 12.0164 1.06287 12.4096 1.03057 12.805C0.999969 13.1795 0.999984 13.6343 1 14.1614V18.8385C0.999984 19.3657 0.999969 19.8205 1.03057 20.195C1.06287 20.5904 1.13419 20.9836 1.32698 21.362C1.6146 21.9265 2.07354 22.3854 2.63803 22.673C3.01641 22.8658 3.40963 22.9371 3.80497 22.9694C4.17954 23 4.6343 23 5.16144 23C5.62456 23 6 22.6246 6 22.1614L6 14C6 13.4477 6.44772 13 7 13C7.55229 13 8 13.4477 8 14L8 21.4C8 21.9601 8 22.2401 8.10899 22.454C8.20487 22.6422 8.35785 22.7951 8.54601 22.891C8.75992 23 9.03995 23 9.6 23H15.9196C16.6184 23 17.1985 23 17.6758 22.9637C18.1742 22.9257 18.6336 22.8444 19.0771 22.6434C19.7707 22.3291 20.3602 21.8234 20.7763 21.1857C21.0423 20.7779 21.1926 20.3362 21.3059 19.8494C21.4144 19.3832 21.5026 18.8098 21.6088 18.1192L22.1444 14.6377C22.2852 13.7227 22.4006 12.9726 22.4414 12.3604C22.4836 11.7288 22.456 11.1394 22.2405 10.5745C21.9097 9.70708 21.2874 8.98175 20.4804 8.52284C19.9548 8.22398 19.3765 8.10713 18.7458 8.05272C18.1345 7.99997 17.3756 7.99999 16.4498 8H15.6C15.3035 8 15.1412 7.99922 15.0246 7.9897L15.0115 7.98855L15.0103 7.97537C15.0008 7.85878 15 7.69653 15 7.4V4.46584C15 2.55171 13.4483 1 11.5342 1Z" fill="#801ED7"/>
</svg>
